X:1
T:Title
%%score { 1 | 2 }
L:1/8
M:4/4
K:Ab
V:1 treble nm="Grand Piano"
V:2 bass 
V:1
 z4 z2[Q:1/4=110] [CE]2 | [CE]2 [CA]2 [Ec]3 [CE] | [DF]2 [FB]4 [FA]2 | G2 A2 B2 E2 | c6 [CE]2 | %5
 [CE]2 [CA]2 [Ec]3 [CE] | [DF]2 [FB]4 [FA]2 | G2 A2 c3 B |[M:3/4] [A,CA]6 |[M:1/4] [CEA]2 | %10
[M:4/4] [DFA]2 [Fd]2 [Fd]3 [FA] | [EA]2 [Ec]2 [Ec]3 [Ec] | [=Dc]2 [DB]2 =d3 c | [GB]2 [Ge]4 E2 | %14
 E2 A2 [Ec]3 [CE] | [DF]2 [FB]4 [FA]2 | G2 A2 c3 B |[M:3/4] [CA]6 |] %18
V:2
 z4 z2 [A,,A,]2 | [A,,A,]2 [A,,E,]2 [A,,A,]3 [A,,A,] | [D,A,]2 [D,D]4 [D,D]2 | %3
 [E,B,E]2 [E,CE]2 [E,DE]2 [G,B,]2 | [A,E]6 [A,,A,]2 | [A,,A,]2 [A,,E,]2 [A,,A,]3 [A,,A,] | %6
 [D,A,]2 [D,D]4 [D,D]2 | [E,DE]2 [E,CE]2 [E,A,E]3 [E,G,D] |[M:3/4] A,,6 |[M:1/4] A,,2 | %10
[M:4/4] D,2 [D,A,]2 [D,A,]3 [D,D] | [A,C]2 [A,,A,]2 [A,,A,]3 [A,,A,] | %12
 [B,,A,]2 [B,,F,]2[K:treble] [B,A]3 [B,=DA] | [E,E]2 [E,B,]4 [G,B,]2 | %14
 [A,C]2 [A,C]2 [A,,A,]3 [A,,A,] | [D,A,]2 [D,D]4 [D,D]2 | [E,DE]2 [E,CE]2 [E,A,E]3 [E,G,D] | %17
[M:3/4] [A,,E,A,]6 |] %18

